!!!Melodie: eigene
!!!Typ: Lied
**kern	**silbe	**silbe	**silbe	**silbe	**silbe	**silbe	**silbe	**silbe	**silbe	**silbe	**silbe	**silbe	**silbe	**silbe	**silbe
*clefG2	*lang:DE	*lang:DE	*lang:DE	*lang:DE	*lang:DE	*lang:DE	*lang:DE	*lang:DE	*lang:DE	*lang:DE	*lang:DE	*lang:DE	*lang:DE	*lang:DE	*lang:DE
*k[f#,c#]	*	*	*	*	*	*	*	*	*	*	*	*	*	*	*
*M2/4	*	*	*	*	*	*	*	*	*	*	*	*	*	*	*
8a	Geh	Die	Die	Die	Die	Die	Der	Ich	Ach,	Welch	O	Doch	Hilf	Mach	Er#
=	=	=	=	=	=	=	=	=	=	=	=	=	=	=	=
8.a	aus,	Bäu#	Ler#	Gluk#	Bäch#	un#	Wei#	selb#	denk’	ho#	wär’	gleich#	mir	in	#wäh#
16g	mein	#me	#che	#ke	#lein	#ver#	#zen	#sten	ich,	#he	ich	#wohl	und	mir	#le
8f#	Herz,	ste#	schwingt	führt	rau#	#droß#	wäch#	kann	bist	Lust,	da!	will	seg#	dei#	mich
8f#	und	#hen	sich	ihr	#schen	#'ne	#set	und	du	welch	O	ich,	#ne	#nem	zum
=	=	=	=	=	=	=	=	=	=	=	=	=	=	=	=
16Lf#	su#	vol#	in	Völk#	in	Bie#	mit	mag	hier	hel#	stünd’	weil	mei#	Gei#	Pa#
16Jg	|	|	|	|	|	|	|	|	|	|	|	|	|	|	|
16Lf#	#che	#ler	die	#lein	dem	#nen#	Ge#	nicht	so	#ler	ich	ich	#nen	#ste	#ra#
16Je	|	|	|	|	|	|	|	|	|	|	|	|	|	|	|
8d	Freud’	Laub,	Luft,	aus,	Sand,	#schar	#walt;	ruh'n,	schön	Schein	schon	noch	Geist	Raum,	#deis
8a	in	das	das	der	und	fliegt	da#	des	und	wird	ach	hier	mit	dass	und
=	=	=	=	=	=	=	=	=	=	=	=	=	=	=	=
8dd	die#	Erd#	Täub#	Storch	ma#	hin	#rü#	gro#	lässt	wohl	sü#	tra#	Se#	ich	lass
16Lcc#	#ser	#reich	#lein	baut	#len	und	#ber	#ßen	du’s	in	#ßer	#ge	#gen,	dir	mich
16Jb	|	|	|	|	|	|	|	|	|	|	|	|	|	|	|
8a	lie#	dek#	fliegt	und	sich	her,	jauch#	Got#	uns	Chris#	Gott,	die#	der	werd’	bis
8f#	#ben	#ket	aus	be#	an	sucht	#zet	#tes	so	#ti	vor	#ses	vom	ein	zur
=	=	=	=	=	=	=	=	=	=	=	=	=	=	=	=
16Le	Som#	sei#	sei#	#wohnt	ih#	hier	jung	gro#	lieb#	Gar#	dei#	Lei#	Him#	gu#	letz#
16Jf#	|	|	|	|	|	|	|	|	|	|	|	|	|	|	|
16Lg	#mer#	#nen	#ner	sein	#rem	und	und	#ßes	#lich	#ten	#nem	#bes	#mel	#ter	#ten
16Ja	|	|	|	|	|	|	|	|	|	|	|	|	|	|	|
8f#	#zeit	Staub	Kluft	Haus,	Rand	da	alt	Tun	geh’n	sein!	Thron	Joch,	fleußt,	Baum,	Reis’
8f#	an	mit	und	das	mit	ihr’	und	er#	auf	Wie	und	auch	dass	und	an
=	=	=	=	=	=	=	=	=	=	=	=	=	=	=	=
8.e	dei#	ei#	macht	Schwälb#	schat#	ed#	rühmt	#weckt	die#	muss	trü#	nicht	ich	lass	Leib
16a	#nes	#nem	sich	#lein	#ten#	#le	die	mir	#ser	es	#ge	gar	dir	mich	und
16Lcc#	Got#	grü#	in	speist	#rei#	Ho#	gro#	al#	arm#	da	mei#	stil#	ste#	Wur#	See#
16Jb	|	|	|	|	|	|	|	|	|	|	|	|	|	|	|
16La	#tes	#nen	die	die	#chen	#nig#	#ße	#le	#en	wohl	#ne	#le	#tig	#zel	#le
16Jg#	|	|	|	|	|	|	|	|	|	|	|	|	|	|	|
=	=	=	=	=	=	=	=	=	=	=	=	=	=	=	=
4b	Ga#	Klei#	Wäl#	Jun#	Myr#	#spei#	Gü#	Sin#	Er#	klin#	Pal#	schwei#	blü#	trei#	grü#
8a	#ben;	#de;	#der;	#gen,	#ten;	#se;	#te	#nen;	#den:	#gen,	#men;	#gen;	#he;	#ben.	#nen,
8A	schau	Nar#	die	der	die	des	des,	ich	was	da	so	mein	gib,	Ver#	so
=	=	=	=	=	=	=	=	=	=	=	=	=	=	=	=
8.g	an	#zis#	hoch#	schnel#	Wie#	sü#	der	sin#	will	so	wollt’	Her#	dass	#lei#	will
16f#	der	#sus	#be#	#le	#sen	#ßen	so	#ge	doch	viel’	ich	#ze	der	#he,	ich
8e	schö#	und	#gab#	Hirsch,	lie#	Wein#	ü#	mit,	wohl,	tau#	nach	soll	Som#	dass	dir
8e	#nen	die	#te	das	#gen	#stocks	#ber#	wenn	nach	#send	der	sich	#mer	zu	und
=	=	=	=	=	=	=	=	=	=	=	=	=	=	=	=
16La	Gär#	Tu#	Nach#	leich#	hart	star#	#flüs#	al#	die#	Se#	En#	fort	dei#	dei#	dei#
16Jb	|	|	|	|	|	|	|	|	|	|	|	|	|	|	|
16La	#ten	#li#	#ti#	#te	da#	#ker	#sig	#les	#ser	#ra#	#gel	und	#ner	#nem	#ner
16Jg	|	|	|	|	|	|	|	|	|	|	|	|	|	|	|
8f#	Zier	#pan	#gall	Reh	#bei,	Saft,	labt	singt,	Welt,	#phim	Weis’	fort,	Gnad’	Ruhm,	Ehr’
8A	und	die	er#	ist	und	bringt	und	und	dort	mit	er#	an	in	ich	al#
=	=	=	=	=	=	=	=	=	=	=	=	=	=	=	=
8.g	sie#	zie#	#götzt	froh	klin#	täg#	mit	las#	in	un#	#hö#	die#	mei#	dei#	#lein,
16f#	#he,	#hen	und	und	#gen	#lich	so	#se,	dem	#ver#	#hem	#sem	#ner	#nes	und
8e	wie	sich	füllt	kommt	ganz	neu#	man#	was	rei#	#droß#	dei#	und	See#	Gar#	sons#
8e	sie	viel	mit	aus	vom	#e	#chem	dem	#chen	#'nem	#nes	an	#len	#tens	#ten
=	=	=	=	=	=	=	=	=	=	=	=	=	=	=	=
16La	mir	schö#	ih#	sei#	Lust#	Stärk’	Gut	Höch#	Him#	Mund	Na#	al#	früh	schö#	kei#
16Jb	|	|	|	|	|	|	|	|	|	|	|	|	|	|	|
16La	und	#ner	#rem	#ner	#ge#	und	be#	#sten	#mels#	und	#mens	#lem	und	#ne	#nem
16Jg	|	|	|	|	|	|	|	|	|	|	|	|	|	|	|
8f#	dir	an,	Schall	Höh’	#schrei	Kraft,	#gabt	klingt,	#zelt	Stimm’	Preis	Ort	spat	Blum’	mehr
16Lf#	sich	als	Berg’,	ins	der	in	das	aus	und	ihr	mit	zu	viel	und	hier
16Jg	|	|	|	|	|	|	|	|	|	|	|	|	|	|	|
=	=	=	=	=	=	=	=	=	=	=	=	=	=	=	=
8a	aus#	Sa#	Hü#	tie#	Schaf’	sei#	mensch#	mei#	güld#	Hal#	tau#	dei#	Glau#	Pflan#	und
16Lf#	#ge#	#lo#	#gel,	#fe	und	#nem	#li#	#nem	#'nen	#le#	#send	#nem	#bens#	#ze	dort
16Jg	|	|	|	|	|	|	|	|	|	|	|	|	|	|	|
8a	#schmük#	#mo#	Tal	Gras	ih#	schwa#	#che	Her#	Schlos#	#lu#	schö#	Lo#	#früch#	mö#	e#
16Lf#	#ket	#nis	und	ge#	#rer	#cen	Ge#	#zen	#se	#ja	#nen	#be	#te	#ge	#wig
16Jg	|	|	|	|	|	|	|	|	|	|	|	|	|	|	|
=	=	=	=	=	=	=	=	=	=	=	=	=	=	=	=
4a	ha#	Sei#	Fel#	#sprun#	Hir#	Rei#	#mü#	rin#	wer#	sin#	Psal#	nei#	zie#	blei#	die#
8f#	#ben,	#den,	#der,	#gen,	#ten,	#se,	#te,	#nen.	#den,	#gen,	#men;	#gen,	#he,	#ben,	#nen,
8a	sich	als	Berg’,	ins	der	in	das	aus	und	ihr	mit	zu	viel	und	hier
=	=	=	=	=	=	=	=	=	=	=	=	=	=	=	=
8.dd	aus#	Sa#	Hü#	tie#	Schaf’	sei#	mensch#	mei#	güld#	Hal#	tau#	dei#	Glau#	Pflan#	und
16b	#ge#	#lo#	#gel,	#fe	und	#nem	#li#	#nem	#'nen	#le#	#send	#nem	#bens#	#ze	dort
16La	#schmük#	#mo#	Tal	Gras	ih#	schwa#	#che	Her#	Schlos#	#lu#	schö#	Lo#	#früch#	mö#	e#
16Jg	|	|	|	|	|	|	|	|	|	|	|	|	|	|	|
16Lf#	#ket	#nis	und	ge#	#rer	#chen	Ge#	#zen	#se	#ja	#nen	#be	#te	#ge	#wig
16Je	|	|	|	|	|	|	|	|	|	|	|	|	|	|	|
=	=	=	=	=	=	=	=	=	=	=	=	=	=	=	=
4e	ha#	Sei#	Fel#	#sprun#	Hir#	Rei#	#mü#	rin#	wer#	sin#	Psal#	nei#	zie#	blei#	die#
8d	#ben.	#de.	#der.	#gen.	#ten.	#se.	#te.	#nen,	#den!	#gen.	#men.	#gen.	#he.	#ben.	#nen.
==	==	==	==	==	==	==	==	==	==	==	==	==	==	==	==
*-	*-	*-	*-	*-	*-	*-	*-	*-	*-	*-	*-	*-	*-	*-	*-
